src/16/actions/color-picker-white.svg

<svg xmlns="http://www.w3.org/2000/svg" viewBox="0 0 16 16"><path d="M8 2a13.365 13.365 0 0 1-.631 1.67c-1.232 2.7-3.162 4.548-3.348 6.252-.005.025-.017.053-.021.078l.016.006c-.004.059-.016.117-.016.176C4 12.291 5.791 14 8 14s4-1.71 4-3.818c0-.058-.012-.117-.016-.176L12 10c-.004-.025-.016-.053-.021-.078-.186-1.704-2.115-3.552-3.348-6.252A13.365 13.365 0 0 1 8 2m0 1.465c.58 1.366 1.338 2.51 1.996 3.506.249.387.513.799.759 1.232.005.009-.003.02-.005.03.07.282.106.57.107.859-.001 2.108-1.792 3.816-4 3.816a4.162 4.162 0 0 1-.883-.098c-.846-.596-1.403-1.548-1.402-2.629 0-.311.054-.617.145-.912.337-.844.842-1.605 1.287-2.299C6.662 5.974 7.42 4.83 8 3.464m-1.996 9.367c.085.059.175.109.266.16a3.747 3.747 0 0 1-.266-.16m1.119.502c.088.023.176.047.266.063-.091-.016-.177-.04-.266-.063" fill="currentColor" color="#5d656b"/><path d="M8 3.47c-.58 1.366-1.338 2.51-1.996 3.506-.446.694-.95 1.454-1.287 2.299-.09.295-.144.601-.145.912 0 1.081.556 2.033 1.402 2.629.29.064.586.096.883.098 2.208 0 3.999-1.708 4-3.816a4.157 4.157 0 0 0-.119-.914l.006.007c-.244-.429-.501-.83-.748-1.214C9.338 5.981 8.58 4.837 8 3.471" fill="#fff" fill-rule="evenodd"/></svg>

<svg xmlns="http://www.w3.org/2000/svg" viewBox="0 0 16 16">
  <defs id="defs3051">
    <style type="text/css" id="current-color-scheme">
      .ColorScheme-Text {
        color:#5d656b;
      }
      </style>
  </defs>
 <path style="fill:currentColor;fill-opacity:1;stroke:none" 
     d="M 8,2 C 7.834,2.569 7.611,3.125 7.369,3.67 6.137,6.37 4.207,8.218 4.021,9.922 4.016,9.947 4.004,9.975 4,10 l 0.016,0.006 C 4.012,10.065 4,10.123 4,10.182 4,12.291 5.791,14 8,14 c 2.209,0 4,-1.71 4,-3.818 0,-0.058 -0.012,-0.117 -0.016,-0.176 L 12,10 C 11.996,9.975 11.984,9.947 11.979,9.922 11.793,8.218 9.864,6.37 8.631,3.67 8.389,3.125 8.166,2.569 8,2 m 0,1.465 c 0.58,1.366 1.338,2.51 1.996,3.506 0.249,0.387 0.513,0.799 0.759,1.232 0.005,0.009 -0.003,0.02 -0.005,0.03 0.07,0.282 0.106,0.57 0.107,0.859 -10e-4,2.108 -1.792,3.816 -4,3.816 C 6.56,12.907 6.264,12.874 5.974,12.81 5.128,12.214 4.571,11.262 4.572,10.181 4.572,9.87 4.626,9.564 4.717,9.269 5.054,8.425 5.559,7.664 6.004,6.97 6.662,5.974 7.42,4.83 8,3.464 M 6.004,12.831 C 6.089,12.89 6.179,12.94 6.27,12.991 6.179,12.94 6.09,12.889 6.004,12.831 m 0.533,0.299 c 0.09,0.041 0.182,0.076 0.275,0.109 C 6.718,13.206 6.627,13.17 6.537,13.13 m 0.586,0.203 C 7.211,13.356 7.299,13.38 7.389,13.396 7.298,13.38 7.212,13.356 7.123,13.333"
     class="ColorScheme-Text"
     />
  <path
     style="fill:#ffffff;fill-rule:evenodd"
     d="M 8,3.47 C 7.42,4.836 6.662,5.98 6.004,6.976 5.558,7.67 5.054,8.43 4.717,9.275 4.627,9.57 4.573,9.876 4.572,10.187 c 0,1.081 0.556,2.033 1.402,2.629 0.29,0.064 0.586,0.096 0.883,0.098 2.208,0 3.999,-1.708 4,-3.816 -0.002,-0.289 -0.049,-0.632 -0.119,-0.914 0,0 0.008,0.009 0.006,0.007 C 10.5,7.762 10.243,7.361 9.996,6.977 9.338,5.981 8.58,4.837 8,3.471"/>
</svg>
